Newaita-dark/actions/32/format-text-capitalize.svg

<?xml version="1.0" encoding="UTF-8"?>
<svg xmlns="http://www.w3.org/2000/svg" xmlns:xlink="http://www.w3.org/1999/xlink" width="32pt" height="32pt" viewBox="0 0 32 32" version="1.1">
<g id="surface1">
<path style=" stroke:none;fill-rule:nonzero;fill:rgb(47.058824%,56.470591%,61.176473%);fill-opacity:1;" d="M 17.199219 12.15625 L 17.199219 28.035156 L 19.84375 28.035156 L 19.84375 27.507812 C 20.625 27.84375 21.527344 28.035156 22.492188 28.035156 C 25.121094 28.035156 27.292969 26.609375 27.710938 24.726562 L 27.785156 24.726562 L 27.785156 24.066406 C 27.785156 21.867188 25.421875 20.09375 22.492188 20.09375 C 21.527344 20.09375 20.625 20.289062 19.84375 20.625 L 19.84375 12.15625 Z M 22.492188 22.742188 C 23.957031 22.742188 25.136719 23.332031 25.136719 24.066406 C 25.136719 24.796875 23.957031 25.386719 22.492188 25.386719 C 21.027344 25.386719 19.84375 24.796875 19.84375 24.066406 C 19.84375 23.332031 21.027344 22.742188 22.492188 22.742188 Z M 22.492188 22.742188 "/>
<path style=" stroke:none;fill-rule:nonzero;fill:rgb(47.058824%,56.470591%,61.176473%);fill-opacity:1;" d="M 9.261719 12.15625 C 6.328125 12.15625 3.96875 13.925781 3.96875 16.125 L 3.96875 28.035156 L 6.613281 28.035156 L 6.613281 22.742188 L 11.90625 22.742188 L 11.90625 28.035156 L 14.554688 28.035156 L 14.554688 16.125 C 14.554688 13.925781 12.191406 12.15625 9.261719 12.15625 Z M 9.261719 14.804688 C 10.726562 14.804688 11.90625 15.394531 11.90625 16.125 L 11.90625 20.09375 L 6.613281 20.09375 L 6.613281 16.125 C 6.613281 15.394531 7.796875 14.804688 9.261719 14.804688 Z M 9.261719 14.804688 "/>
<path style=" stroke:none;fill-rule:nonzero;fill:rgb(14.901961%,65.098041%,60.392159%);fill-opacity:1;" d="M 4.355469 3.320312 C 4.34375 3.0625 4.4375 2.816406 4.617188 2.632812 C 4.792969 2.449219 5.035156 2.34375 5.292969 2.34375 L 13.230469 2.34375 C 13.566406 2.34375 13.878906 2.527344 14.046875 2.820312 C 14.210938 3.113281 14.207031 3.472656 14.035156 3.765625 L 10.066406 10.378906 C 9.894531 10.660156 9.589844 10.835938 9.261719 10.835938 C 8.933594 10.835938 8.625 10.660156 8.457031 10.378906 L 4.488281 3.765625 C 4.40625 3.628906 4.363281 3.476562 4.355469 3.320312 Z M 6.949219 4.21875 L 9.261719 8.074219 L 11.574219 4.21875 Z M 6.949219 4.21875 "/>
</g>
</svg>

<svg xmlns="http://www.w3.org/2000/svg" width="32pt" height="32pt" viewBox="0 0 32 32"><path d="M17.2 12.156v15.88h2.644v-.528a6.716 6.716 0 0 0 2.648.527c2.63 0 4.801-1.426 5.219-3.308h.074v-.66c0-2.2-2.363-3.973-5.293-3.973-.965 0-1.867.195-2.648.531v-8.469zm5.292 10.586c1.465 0 2.645.59 2.645 1.324 0 .73-1.18 1.32-2.645 1.32s-2.648-.59-2.648-1.32c0-.734 1.183-1.324 2.648-1.324zm0 0M9.262 12.156c-2.934 0-5.293 1.77-5.293 3.969v11.91h2.644v-5.293h5.293v5.293h2.649v-11.91c0-2.2-2.364-3.969-5.293-3.969zm0 2.649c1.465 0 2.644.59 2.644 1.32v3.969H6.613v-3.969c0-.73 1.184-1.32 2.649-1.32zm0 0" fill="#78909c"/><path d="M4.355 3.32a.917.917 0 0 1 .262-.687.933.933 0 0 1 .676-.29h7.937c.336 0 .649.184.817.477a.95.95 0 0 1-.012.946l-3.969 6.613a.948.948 0 0 1-.804.457.943.943 0 0 1-.805-.457L4.488 3.766a.953.953 0 0 1-.133-.446zm2.594.899l2.313 3.855 2.312-3.855zm0 0" fill="#26a69a"/></svg>
